svg/Filled/alert-circle_filled.svg

<svg viewBox="0 0 24 24" xmlns="http://www.w3.org/2000/svg" width="24" height="24"><path fill-rule="evenodd" d="M12 1a11 11 0 1 1 0 22 11 11 0 0 1 0-22m0 14.1a1 1 0 1 0 0 2 1 1 0 0 0 0-2M11.99 7c-.4 0-.64.09-.88.25a.8.8 0 0 0-.36.58v.1l.27 5.28q.02.29.33.49l.07.05q.28.15.57.15c.2 0 .5-.09.67-.2l.07-.05a.6.6 0 0 0 .25-.44l.27-5.28q.02-.4-.36-.66A1.4 1.4 0 0 0 12 7" clip-rule="evenodd"/></svg>

<svg viewBox="0 0 24 24" xmlns="http://www.w3.org/2000/svg" width="24" height="24"><path fill-rule="evenodd" d="M12 1a11 11 0 1 1 0 22 11 11 0 0 1 0-22m0 14.1a1 1 0 1 0 0 2 1 1 0 0 0 0-2M11.99 7C11.59 7 11.35 7.09 11.11 7.25A.8 .8 0 0 0 10.75 7.83L11.02 13.21Q11.04 13.5 11.35 13.7L11.42 13.75Q11.7 13.9 11.99 13.9C12.19 13.9 12.49 13.81 12.66 13.7L12.73 13.65A.6 .6 0 0 0 12.98 13.21L13.25 7.93Q13.27 7.53 12.89 7.27A1.4 1.4 0 0 0 12 7" clip-rule="evenodd"/></svg>
